X:1
T:Detroit, 76.86 D
T:Anonymous, before 1903
T:Detroit, 76.86 D
T:Public Domain
C:Anonymous, before 1903
Z:Public Domain
%%score ( 1 2 ) ( 3 4 )
L:1/8
M:4/4
K:A
V:1 treble 
V:2 treble 
V:3 bass 
V:4 bass 
V:1
 E2 | [EA]3 [EA] [EG]2 [EA]2 | [EB]2 [EB]4 E2 | [EB]3 [EB] [EA]2 [EB]2 | [Ec]6 E2 | %5
 [Ec]2 [Ec]2 [Fd]2 [Ec]2 | [^DB]2 [DF]2 [DF]2 [DA]2 | [EG]2 [EA]2 G2 z B x | A6 [CA]2 | %9
 [EG]2 [DF]2 [DF]3 [EG] x | [DF]2 [CE]4 [A,E]2 [A,F]2 [A,F]2 D2 z A x | [EG]6 [FG]2 | %12
 [^EG]2 [EG]2 C2 z B x | [CA]2 [DF]2 [DF]2 [DF]2 | [CE]2 E2 [^DF]2 [=DG]2 | [CA]6 x2 |] x6 |] %17
V:2
 E2 | x8 | x6 E2 | x8 | x6 E2 | x8 | x8 | x4 c3 G2 | A6 x2 | x9 | x12 B3 ^D2 | x8 | x4 c3 C2 | x8 | %14
 x2 E2 x4 | x8 |] x6 |] %17
V:3
 [A,C]2 | [A,C]3 [A,C] [B,D]2 [A,C]2 | [G,D]2 [G,D]4 [G,D]2 | [E,D]3 [E,D] [F,D]2 [G,D]2 | %4
 [A,C]6 ([A,C][G,B,]) | [F,^A,]2 [F,A,]2 [F,A,]2 [F,A,]2 | [B,,B,]2 [B,,B,]2 [B,,B,]2 [B,,B,]2 | %7
 [E,B,]2 [E,C]2 [E,E]3 [E,D] x | [A,C]6 [A,,A,]2 | [D,A,]2 [D,A,]2 D,2 z A, x | %10
 A,2 A,4 [A,,C]2 x9 | [D,D]2 (D,C,) [B,,F,]2 [B,,B,]2 | [E,B,]6 [^D,^B,]2 x | %13
 [C,C]2 [C,C]2 [^E,G,]2 [E,G,]2 | [F,A,]2 [D,A,]2 [D,A,]2 [D,A,]2 | %15
 [E,A,]2 [E,C]2 [E,=C]2 [E,B,]2 |] [A,,A,]6 |] %17
V:4
 x2 | x8 | x8 | x8 | x8 | x8 | x8 | x9 | x8 | x4 A,3 D,2 | A,2 A,4 x11 | x2 D2 x4 | x9 | x8 | x8 | %15
 x8 |] x6 |] %17

